examples/dpx/Video2Log_HR_150.cube
TITLE "Generate by Resolve"
LUT_3D_SIZE 33
0.090196 0.090196 0.090196
0.160784 0.090196 0.090196
0.219608 0.090196 0.090196
0.262745 0.090196 0.090196
0.301961 0.090196 0.090196
0.333333 0.090196 0.090196
0.360784 0.090196 0.090196
0.388235 0.090196 0.090196
0.407843 0.090196 0.090196
0.427451 0.090196 0.090196
0.447059 0.090196 0.090196
0.462745 0.090196 0.090196
0.478431 0.090196 0.090196
0.494118 0.090196 0.090196
0.509804 0.090196 0.090196
0.521569 0.090196 0.090196
0.537255 0.090196 0.090196
0.556863 0.090196 0.090196
0.572549 0.090196 0.090196
0.592157 0.090196 0.090196
0.607843 0.090196 0.090196
0.627451 0.090196 0.090196
0.647059 0.090196 0.090196
0.666667 0.090196 0.090196
0.690196 0.090196 0.090196
0.709804 0.090196 0.090196
0.733333 0.090196 0.090196
0.760784 0.090196 0.090196
0.788235 0.090196 0.090196
0.815686 0.090196 0.090196
0.850980 0.090196 0.090196
0.898039 0.090196 0.090196
1.000000 0.090196 0.090196
0.090196 0.160784 0.090196
0.160784 0.160784 0.090196
0.219608 0.160784 0.090196
0.262745 0.160784 0.090196
0.301961 0.160784 0.090196
0.333333 0.160784 0.090196
0.360784 0.160784 0.090196
0.388235 0.160784 0.090196
0.407843 0.160784 0.090196
0.427451 0.160784 0.090196
0.447059 0.160784 0.090196
0.462745 0.160784 0.090196
0.478431 0.160784 0.090196
0.494118 0.160784 0.090196
0.509804 0.160784 0.090196
0.521569 0.160784 0.090196
0.537255 0.160784 0.090196
0.556863 0.160784 0.090196
0.572549 0.160784 0.090196
0.592157 0.160784 0.090196
0.607843 0.160784 0.090196
0.627451 0.160784 0.090196
0.647059 0.160784 0.090196
0.666667 0.160784 0.090196
0.690196 0.160784 0.090196
0.709804 0.160784 0.090196
0.733333 0.160784 0.090196
0.760784 0.160784 0.090196
0.788235 0.160784 0.090196
0.815686 0.160784 0.090196
0.850980 0.160784 0.090196
0.898039 0.160784 0.090196
1.000000 0.160784 0.090196
0.090196 0.219608 0.090196
0.160784 0.219608 0.090196
0.219608 0.219608 0.090196
0.262745 0.219608 0.090196
0.301961 0.219608 0.090196
0.333333 0.219608 0.090196
0.360784 0.219608 0.090196
0.388235 0.219608 0.090196
0.407843 0.219608 0.090196
0.427451 0.219608 0.090196
0.447059 0.219608 0.090196
0.462745 0.219608 0.090196
0.478431 0.219608 0.090196
0.494118 0.219608 0.090196
0.509804 0.219608 0.090196
0.521569 0.219608 0.090196
0.537255 0.219608 0.090196
0.556863 0.219608 0.090196
0.572549 0.219608 0.090196
0.592157 0.219608 0.090196
0.607843 0.219608 0.090196
0.627451 0.219608 0.090196
0.647059 0.219608 0.090196
0.666667 0.219608 0.090196
0.690196 0.219608 0.090196
0.709804 0.219608 0.090196
0.733333 0.219608 0.090196
0.760784 0.219608 0.090196
0.788235 0.219608 0.090196
0.815686 0.219608 0.090196
0.850980 0.219608 0.090196
0.898039 0.219608 0.090196
1.000000 0.219608 0.090196
0.090196 0.262745 0.090196
0.160784 0.262745 0.090196
0.219608 0.262745 0.090196
0.262745 0.262745 0.090196
0.301961 0.262745 0.090196
0.333333 0.262745 0.090196
0.360784 0.262745 0.090196
0.388235 0.262745 0.090196
0.407843 0.262745 0.090196
0.427451 0.262745 0.090196
0.447059 0.262745 0.090196
0.462745 0.262745 0.090196
0.478431 0.262745 0.090196
0.494118 0.262745 0.090196
0.509804 0.262745 0.090196
0.521569 0.262745 0.090196
0.537255 0.262745 0.090196
0.556863 0.262745 0.090196
0.572549 0.262745 0.090196
0.592157 0.262745 0.090196
0.607843 0.262745 0.090196
0.627451 0.262745 0.090196
0.647059 0.262745 0.090196
0.666667 0.262745 0.090196
0.690196 0.262745 0.090196
0.709804 0.262745 0.090196
0.733333 0.262745 0.090196
0.760784 0.262745 0.090196
0.788235 0.262745 0.090196
0.815686 0.262745 0.090196
0.850980 0.262745 0.090196
0.898039 0.262745 0.090196
1.000000 0.262745 0.090196
0.090196 0.301961 0.090196
0.160784 0.301961 0.090196
0.219608 0.301961 0.090196
0.262745 0.301961 0.090196
0.301961 0.301961 0.090196
0.333333 0.301961 0.090196
0.360784 0.301961 0.090196
0.388235 0.301961 0.090196
0.407843 0.301961 0.090196
0.427451 0.301961 0.090196
0.447059 0.301961 0.090196
0.462745 0.301961 0.090196
0.478431 0.301961 0.090196
0.494118 0.301961 0.090196
0.509804 0.301961 0.090196
0.521569 0.301961 0.090196
0.537255 0.301961 0.090196
0.556863 0.301961 0.090196
0.572549 0.301961 0.090196
0.592157 0.301961 0.090196
0.607843 0.301961 0.090196
0.627451 0.301961 0.090196
0.647059 0.301961 0.090196
0.666667 0.301961 0.090196
0.690196 0.301961 0.090196
0.709804 0.301961 0.090196
0.733333 0.301961 0.090196
0.760784 0.301961 0.090196
0.788235 0.301961 0.090196
0.815686 0.301961 0.090196
0.850980 0.301961 0.090196
0.898039 0.301961 0.090196
1.000000 0.301961 0.090196
0.090196 0.333333 0.090196
0.160784 0.333333 0.090196
0.219608 0.333333 0.090196
0.262745 0.333333 0.090196
0.301961 0.333333 0.090196
0.333333 0.333333 0.090196
0.360784 0.333333 0.090196
0.388235 0.333333 0.090196
0.407843 0.333333 0.090196
0.427451 0.333333 0.090196
0.447059 0.333333 0.090196
0.462745 0.333333 0.090196
0.478431 0.333333 0.090196
0.494118 0.333333 0.090196
0.509804 0.333333 0.090196
0.521569 0.333333 0.090196
0.537255 0.333333 0.090196
0.556863 0.333333 0.090196
0.572549 0.333333 0.090196
0.592157 0.333333 0.090196
0.607843 0.333333 0.090196
0.627451 0.333333 0.090196
0.647059 0.333333 0.090196
0.666667 0.333333 0.090196
0.690196 0.333333 0.090196
0.709804 0.333333 0.090196
0.733333 0.333333 0.090196
0.760784 0.333333 0.090196
0.788235 0.333333 0.090196
0.815686 0.333333 0.090196
0.850980 0.333333 0.090196
0.898039 0.333333 0.090196
1.000000 0.333333 0.090196
0.090196 0.360784 0.090196
0.160784 0.360784 0.090196
0.219608 0.360784 0.090196
0.262745 0.360784 0.090196
0.301961 0.360784 0.090196
0.333333 0.360784 0.090196
0.360784 0.360784 0.090196
0.388235 0.360784 0.090196
0.407843 0.360784 0.090196
0.427451 0.360784 0.090196
0.447059 0.360784 0.090196
0.462745 0.360784 0.090196
0.478431 0.360784 0.090196
0.494118 0.360784 0.090196
0.509804 0.360784 0.090196
0.521569 0.360784 0.090196
0.537255 0.360784 0.090196
0.556863 0.360784 0.090196
0.572549 0.360784 0.090196
0.592157 0.360784 0.090196
0.607843 0.360784 0.090196
0.627451 0.360784 0.090196
0.647059 0.360784 0.090196
0.666667 0.360784 0.090196
0.690196 0.360784 0.090196
0.709804 0.360784 0.090196
0.733333 0.360784 0.090196
0.760784 0.360784 0.090196
0.788235 0.360784 0.090196
0.815686 0.360784 0.090196
0.850980 0.360784 0.090196
0.898039 0.360784 0.090196
1.000000 0.360784 0.090196
0.090196 0.388235 0.090196
0.160784 0.388235 0.090196
0.219608 0.388235 0.090196
0.262745 0.388235 0.090196
0.301961 0.388235 0.090196
0.333333 0.388235 0.090196
0.360784 0.388235 0.090196
0.388235 0.388235 0.090196
0.407843 0.388235 0.090196
0.427451 0.388235 0.090196
0.447059 0.388235 0.090196
0.462745 0.388235 0.090196
0.478431 0.388235 0.090196
0.494118 0.388235 0.090196
0.509804 0.388235 0.090196
0.521569 0.388235 0.090196
0.537255 0.388235 0.090196
0.556863 0.388235 0.090196
0.572549 0.388235 0.090196
0.592157 0.388235 0.090196
0.607843 0.388235 0.090196
0.627451 0.388235 0.090196
0.647059 0.388235 0.090196
0.666667 0.388235 0.090196
0.690196 0.388235 0.090196
0.709804 0.388235 0.090196
0.733333 0.388235 0.090196
0.760784 0.388235 0.090196
0.788235 0.388235 0.090196
0.815686 0.388235 0.090196
0.850980 0.388235 0.090196
0.898039 0.388235 0.090196
1.000000 0.388235 0.090196
0.090196 0.407843 0.090196
0.160784 0.407843 0.090196
0.219608 0.407843 0.090196
0.262745 0.407843 0.090196
0.301961 0.407843 0.090196
0.333333 0.407843 0.090196
0.360784 0.407843 0.090196
0.388235 0.407843 0.090196
0.407843 0.407843 0.090196
0.427451 0.407843 0.090196
0.447059 0.407843 0.090196
0.462745 0.407843 0.090196
0.478431 0.407843 0.090196
0.494118 0.407843 0.090196
0.509804 0.407843 0.090196
0.521569 0.407843 0.090196
0.537255 0.407843 0.090196
0.556863 0.407843 0.090196
0.572549 0.407843 0.090196
0.592157 0.407843 0.090196
0.607843 0.407843 0.090196
0.627451 0.407843 0.090196
0.647059 0.407843 0.090196
0.666667 0.407843 0.090196
0.690196 0.407843 0.090196
0.709804 0.407843 0.090196
0.733333 0.407843 0.090196
0.760784 0.407843 0.090196
0.788235 0.407843 0.090196
0.815686 0.407843 0.090196
0.850980 0.407843 0.090196
0.898039 0.407843 0.090196
1.000000 0.407843 0.090196
0.090196 0.427451 0.090196
0.160784 0.427451 0.090196
0.219608 0.427451 0.090196
0.262745 0.427451 0.090196
0.301961 0.427451 0.090196
0.333333 0.427451 0.090196
0.360784 0.427451 0.090196
0.388235 0.427451 0.090196
0.407843 0.427451 0.090196
0.427451 0.427451 0.090196
0.447059 0.427451 0.090196
0.462745 0.427451 0.090196
0.478431 0.427451 0.090196
0.494118 0.427451 0.090196
0.509804 0.427451 0.090196
0.521569 0.427451 0.090196
0.537255 0.427451 0.090196
0.556863 0.427451 0.090196
0.572549 0.427451 0.090196
0.592157 0.427451 0.090196
0.607843 0.427451 0.090196
0.627451 0.427451 0.090196
0.647059 0.427451 0.090196
0.666667 0.427451 0.090196
0.690196 0.427451 0.090196
0.709804 0.427451 0.090196
0.733333 0.427451 0.090196
0.760784 0.427451 0.090196
0.788235 0.427451 0.090196
0.815686 0.427451 0.090196
0.850980 0.427451 0.090196
0.898039 0.427451 0.090196
1.000000 0.427451 0.090196
0.090196 0.447059 0.090196
0.160784 0.447059 0.090196
0.219608 0.447059 0.090196
0.262745 0.447059 0.090196
0.301961 0.447059 0.090196
0.333333 0.447059 0.090196
0.360784 0.447059 0.090196
0.388235 0.447059 0.090196
0.407843 0.447059 0.090196
0.427451 0.447059 0.090196
0.447059 0.447059 0.090196
0.462745 0.447059 0.090196
0.478431 0.447059 0.090196
0.494118 0.447059 0.090196
0.509804 0.447059 0.090196
0.521569 0.447059 0.090196
0.537255 0.447059 0.090196
0.556863 0.447059 0.090196
0.572549 0.447059 0.090196
0.592157 0.447059 0.090196
0.607843 0.447059 0.090196
0.627451 0.447059 0.090196
0.647059 0.447059 0.090196
0.666667 0.447059 0.090196
0.690196 0.447059 0.090196
0.709804 0.447059 0.090196
0.733333 0.447059 0.090196
0.760784 0.447059 0.090196
0.788235 0.447059 0.090196
0.815686 0.447059 0.090196
0.850980 0.447059 0.090196
0.898039 0.447059 0.090196
1.000000 0.447059 0.090196
0.090196 0.462745 0.090196
0.160784 0.462745 0.090196
0.219608 0.462745 0.090196
0.262745 0.462745 0.090196
0.301961 0.462745 0.090196
0.333333 0.462745 0.090196
0.360784 0.462745 0.090196
0.388235 0.462745 0.090196
0.407843 0.462745 0.090196
0.427451 0.462745 0.090196
0.447059 0.462745 0.090196
0.462745 0.462745 0.090196
0.478431 0.462745 0.090196
0.494118 0.462745 0.090196
0.509804 0.462745 0.090196
0.521569 0.462745 0.090196
0.537255 0.462745 0.090196
0.556863 0.462745 0.090196
0.572549 0.462745 0.090196
0.592157 0.462745 0.090196
0.607843 0.462745 0.090196
0.627451 0.462745 0.090196
0.647059 0.462745 0.090196
0.666667 0.462745 0.090196
0.690196 0.462745 0.090196
0.709804 0.462745 0.090196
0.733333 0.462745 0.090196
0.760784 0.462745 0.090196
0.788235 0.462745 0.090196
0.815686 0.462745 0.090196
0.850980 0.462745 0.090196
0.898039 0.462745 0.090196
1.000000 0.462745 0.090196
0.090196 0.478431 0.090196
0.160784 0.478431 0.090196
0.219608 0.478431 0.090196
0.262745 0.478431 0.090196
0.301961 0.478431 0.090196
0.333333 0.478431 0.090196
0.360784 0.478431 0.090196
0.388235 0.478431 0.090196
0.407843 0.478431 0.090196
0.427451 0.478431 0.090196
0.447059 0.478431 0.090196
0.462745 0.478431 0.090196
0.478431 0.478431 0.090196
0.494118 0.478431 0.090196
0.509804 0.478431 0.090196
0.521569 0.478431 0.090196
0.537255 0.478431 0.090196
0.556863 0.478431 0.090196
0.572549 0.478431 0.090196
0.592157 0.478431 0.090196
0.607843 0.478431 0.090196
0.627451 0.478431 0.090196
0.647059 0.478431 0.090196
0.666667 0.478431 0.090196
0.690196 0.478431 0.090196
0.709804 0.478431 0.090196
0.733333 0.478431 0.090196
0.760784 0.478431 0.090196
0.788235 0.478431 0.090196
0.815686 0.478431 0.090196
0.850980 0.478431 0.090196
0.898039 0.478431 0.090196
1.000000 0.478431 0.090196
0.090196 0.494118 0.090196
0.160784 0.494118 0.090196
0.219608 0.494118 0.090196
0.262745 0.494118 0.090196
0.301961 0.494118 0.090196
0.333333 0.494118 0.090196
0.360784 0.494118 0.090196
0.388235 0.494118 0.090196
0.407843 0.494118 0.090196
0.427451 0.494118 0.090196
0.447059 0.494118 0.090196
0.462745 0.494118 0.090196
0.478431 0.494118 0.090196
0.494118 0.494118 0.090196
0.509804 0.494118 0.090196
0.521569 0.494118 0.090196
0.537255 0.494118 0.090196
0.556863 0.494118 0.090196
0.572549 0.494118 0.090196
0.592157 0.494118 0.090196
0.607843 0.494118 0.090196
0.627451 0.494118 0.090196
0.647059 0.494118 0.090196
0.666667 0.494118 0.090196
0.690196 0.494118 0.090196
0.709804 0.494118 0.090196
0.733333 0.494118 0.090196
0.760784 0.494118 0.090196
0.788235 0.494118 0.090196
0.815686 0.494118 0.090196
0.850980 0.494118 0.090196
0.898039 0.494118 0.090196
1.000000 0.494118 0.090196
0.090196 0.509804 0.090196
0.160784 0.509804 0.090196
0.219608 0.509804 0.090196
0.262745 0.509804 0.090196
0.301961 0.509804 0.090196
0.333333 0.509804 0.090196
0.360784 0.509804 0.090196
0.388235 0.509804 0.090196
0.407843 0.509804 0.090196
0.427451 0.509804 0.090196
0.447059 0.509804 0.090196
0.462745 0.509804 0.090196
0.478431 0.509804 0.090196
0.494118 0.509804 0.090196
0.509804 0.509804 0.090196
0.521569 0.509804 0.090196
0.537255 0.509804 0.090196
0.556863 0.509804 0.090196
0.572549 0.509804 0.090196
0.592157 0.509804 0.090196
0.607843 0.509804 0.090196
0.627451 0.509804 0.090196
0.647059 0.509804 0.090196
0.666667 0.509804 0.090196
0.690196 0.509804 0.090196
0.709804 0.509804 0.090196
0.733333 0.509804 0.090196
0.760784 0.509804 0.090196
0.788235 0.509804 0.090196
0.815686 0.509804 0.090196
0.850980 0.509804 0.090196
0.898039 0.509804 0.090196
1.000000 0.509804 0.090196
0.090196 0.521569 0.090196
0.160784 0.521569 0.090196
0.219608 0.521569 0.090196
0.262745 0.521569 0.090196
0.301961 0.521569 0.090196
0.333333 0.521569 0.090196
0.360784 0.521569 0.090196
0.388235 0.521569 0.090196
0.407843 0.521569 0.090196
0.427451 0.521569 0.090196
0.447059 0.521569 0.090196
0.462745 0.521569 0.090196
0.478431 0.521569 0.090196
0.494118 0.521569 0.090196
0.509804 0.521569 0.090196
0.521569 0.521569 0.090196
0.537255 0.521569 0.090196
0.556863 0.521569 0.090196
0.572549 0.521569 0.090196
0.592157 0.521569 0.090196
0.607843 0.521569 0.090196
0.627451 0.521569 0.090196
0.647059 0.521569 0.090196
0.666667 0.521569 0.090196
0.690196 0.521569 0.090196
0.709804 0.521569 0.090196
0.733333 0.521569 0.090196
0.760784 0.521569 0.090196
0.788235 0.521569 0.090196
0.815686 0.521569 0.090196
0.850980 0.521569 0.090196
0.898039 0.521569 0.090196
1.000000 0.521569 0.090196
0.090196 0.537255 0.090196
0.160784 0.537255 0.090196
0.219608 0.537255 0.090196
0.262745 0.537255 0.090196
0.301961 0.537255 0.090196
0.333333 0.537255 0.090196
0.360784 0.537255 0.090196
0.388235 0.537255 0.090196
0.407843 0.537255 0.090196
0.427451 0.537255 0.090196
0.447059 0.537255 0.090196
0.462745 0.537255 0.090196
0.478431 0.537255 0.090196
0.494118 0.537255 0.090196
0.509804 0.537255 0.090196
0.521569 0.537255 0.090196
0.537255 0.537255 0.090196
0.556863 0.537255 0.090196
0.572549 0.537255 0.090196
0.592157 0.537255 0.090196
0.607843 0.537255 0.090196
0.627451 0.537255 0.090196
0.647059 0.537255 0.090196
0.666667 0.537255 0.090196
0.690196 0.537255 0.090196
0.709804 0.537255 0.090196
0.733333 0.537255 0.090196
0.760784 0.537255 0.090196
0.788235 0.537255 0.090196
0.815686 0.537255 0.090196
0.850980 0.537255 0.090196
0.898039 0.537255 0.090196
1.000000 0.537255 0.090196
0.090196 0.556863 0.090196
0.160784 0.556863 0.090196
0.219608 0.556863 0.090196
0.262745 0.556863 0.090196
0.301961 0.556863 0.090196
0.333333 0.556863 0.090196
0.360784 0.556863 0.090196
0.388235 0.556863 0.090196
0.407843 0.556863 0.090196
0.427451 0.556863 0.090196
0.447059 0.556863 0.090196
0.462745 0.556863 0.090196
0.478431 0.556863 0.090196
0.494118 0.556863 0.090196
0.509804 0.556863 0.090196
0.521569 0.556863 0.090196
0.537255 0.556863 0.090196
0.556863 0.556863 0.090196
0.572549 0.556863 0.090196
0.592157 0.556863 0.090196
0.607843 0.556863 0.090196
0.627451 0.556863 0.090196
0.647059 0.556863 0.090196
0.666667 0.556863 0.090196
0.690196 0.556863 0.090196
0.709804 0.556863 0.090196
0.733333 0.556863 0.090196
0.760784 0.556863 0.090196
0.788235 0.556863 0.090196
0.815686 0.556863 0.090196
0.850980 0.556863 0.090196
0.898039 0.556863 0.090196
1.000000 0.556863 0.090196
0.090196 0.572549 0.090196
0.160784 0.572549 0.090196
0.219608 0.572549 0.090196
0.262745 0.572549 0.090196
0.301961 0.572549 0.090196
0.333333 0.572549 0.090196
0.360784 0.572549 0.090196
0.388235 0.572549 0.090196
0.407843 0.572549 0.090196
0.427451 0.572549 0.090196
0.447059 0.572549 0.090196
0.462745 0.572549 0.090196
0.478431 0.572549 0.090196
0.494118 0.572549 0.090196
0.509804 0.572549 0.090196
0.521569 0.572549 0.090196
0.537255 0.572549 0.090196
0.556863 0.572549 0.090196
0.572549 0.572549 0.090196
0.592157 0.572549 0.090196
0.607843 0.572549 0.090196
0.627451 0.572549 0.090196
0.647059 0.572549 0.090196
0.666667 0.572549 0.090196
0.690196 0.572549 0.090196
0.709804 0.572549 0.090196
0.733333 0.572549 0.090196
0.760784 0.572549 0.090196
0.788235 0.572549 0.090196
0.815686 0.572549 0.090196
0.850980 0.572549 0.090196
0.898039 0.572549 0.090196
1.000000 0.572549 0.090196
0.090196 0.592157 0.090196
0.160784 0.592157 0.090196
0.219608 0.592157 0.090196
0.262745 0.592157 0.090196
0.301961 0.592157 0.090196
0.333333 0.592157 0.090196
0.360784 0.592157 0.090196
0.388235 0.592157 0.090196
0.407843 0.592157 0.090196
0.427451 0.592157 0.090196
0.447059 0.592157 0.090196
0.462745 0.592157 0.090196
0.478431 0.592157 0.090196
0.494118 0.592157 0.090196
0.509804 0.592157 0.090196
0.521569 0.592157 0.090196
0.537255 0.592157 0.090196
0.556863 0.592157 0.090196
0.572549 0.592157 0.090196
0.592157 0.592157 0.090196
0.607843 0.592157 0.090196
0.627451 0.592157 0.090196
0.647059 0.592157 0.090196
0.666667 0.592157 0.090196
0.690196 0.592157 0.090196
0.709804 0.592157 0.090196
0.733333 0.592157 0.090196
0.760784 0.592157 0.090196
0.788235 0.592157 0.090196
0.815686 0.592157 0.090196
0.850980 0.592157 0.090196
0.898039 0.592157 0.090196
1.000000 0.592157 0.090196
0.090196 0.607843 0.090196
0.160784 0.607843 0.090196
0.219608 0.607843 0.090196
0.262745 0.607843 0.090196
0.301961 0.607843 0.090196
0.333333 0.607843 0.090196
0.360784 0.607843 0.090196
0.388235 0.607843 0.090196
0.407843 0.607843 0.090196
0.427451 0.607843 0.090196
0.447059 0.607843 0.090196
0.462745 0.607843 0.090196
0.478431 0.607843 0.090196
0.494118 0.607843 0.090196
0.509804 0.607843 0.090196
0.521569 0.607843 0.090196
0.537255 0.607843 0.090196
0.556863 0.607843 0.090196
0.572549 0.607843 0.090196
0.592157 0.607843 0.090196
0.607843 0.607843 0.090196
0.627451 0.607843 0.090196
0.647059 0.607843 0.090196
0.666667 0.607843 0.090196
0.690196 0.607843 0.090196
0.709804 0.607843 0.090196
0.733333 0.607843 0.090196
0.760784 0.607843 0.090196
0.788235 0.607843 0.090196
0.815686 0.607843 0.090196
0.850980 0.607843 0.090196
0.898039 0.607843 0.090196
1.000000 0.607843 0.090196
0.090196 0.627451 0.090196
0.160784 0.627451 0.090196
0.219608 0.627451 0.090196
0.262745 0.627451 0.090196
0.301961 0.627451 0.090196
0.333333 0.627451 0.090196
0.360784 0.627451 0.090196
0.388235 0.627451 0.090196
0.407843 0.627451 0.090196
0.427451 0.627451 0.090196
0.447059 0.627451 0.090196
0.462745 0.627451 0.090196
0.478431 0.627451 0.090196
0.494118 0.627451 0.090196
0.509804 0.627451 0.090196
0.521569 0.627451 0.090196
0.537255 0.627451 0.090196
0.556863 0.627451 0.090196
0.572549 0.627451 0.090196
0.592157 0.627451 0.090196
0.607843 0.627451 0.090196
0.627451 0.627451 0.090196
0.647059 0.627451 0.090196
0.666667 0.627451 0.090196
0.690196 0.627451 0.090196
0.709804 0.627451 0.090196
0.733333 0.627451 0.090196
0.760784 0.627451 0.090196
0.788235 0.627451 0.090196
0.815686 0.627451 0.090196
0.850980 0.627451 0.090196
0.898039 0.627451 0.090196
1.000000 0.627451 0.090196
0.090196 0.647059 0.090196
0.160784 0.647059 0.090196
0.219608 0.647059 0.090196
0.262745 0.647059 0.090196
0.301961 0.647059 0.090196
0.333333 0.647059 0.090196
0.360784 0.647059 0.090196
0.388235 0.647059 0.090196
0.407843 0.647059 0.090196
0.427451 0.647059 0.090196
0.447059 0.647059 0.090196
0.462745 0.647059 0.090196
0.478431 0.647059 0.090196
0.494118 0.647059 0.090196
0.509804 0.647059 0.090196
0.521569 0.647059 0.090196
0.537255 0.647059 0.090196
0.556863 0.647059 0.090196
0.572549 0.647059 0.090196
0.592157 0.647059 0.090196
0.607843 0.647059 0.090196
0.627451 0.647059 0.090196
0.647059 0.647059 0.090196
0.666667 0.647059 0.090196
0.690196 0.647059 0.090196
0.709804 0.647059 0.090196
0.733333 0.647059 0.090196
0.760784 0.647059 0.090196
0.788235 0.647059 0.090196
0.815686 0.647059 0.090196
0.850980 0.647059 0.090196
0.898039 0.647059 0.090196
1.000000 0.647059 0.090196
0.090196 0.666667 0.090196
0.160784 0.666667 0.090196
0.219608 0.666667 0.090196
0.262745 0.666667 0.090196
0.301961 0.666667 0.090196
0.333333 0.666667 0.090196
0.360784 0.666667 0.090196
0.388235 0.666667 0.090196
0.407843 0.666667 0.090196
0.427451 0.666667 0.090196
0.447059 0.666667 0.090196
0.462745 0.666667 0.090196
0.478431 0.666667 0.090196
0.494118 0.666667 0.090196
0.509804 0.666667 0.090196
0.521569 0.666667 0.090196
0.537255 0.666667 0.090196
0.556863 0.666667 0.090196
0.572549 0.666667 0.090196
0.592157 0.666667 0.090196
0.607843 0.666667 0.090196
0.627451 0.666667 0.090196
0.647059 0.666667 0.090196
0.666667 0.666667 0.090196
0.690196 0.666667 0.090196
0.709804 0.666667 0.090196
0.733333 0.666667 0.090196
0.760784 0.666667 0.090196
0.788235 0.666667 0.090196
0.815686 0.666667 0.090196
0.850980 0.666667 0.090196
0.898039 0.666667 0.090196
1.000000 0.666667 0.090196
0.090196 0.690196 0.090196
0.160784 0.690196 0.090196
0.219608 0.690196 0.090196
0.262745 0.690196 0.090196
0.301961 0.690196 0.090196
0.333333 0.690196 0.090196
0.360784 0.690196 0.090196
0.388235 0.690196 0.090196
0.407843 0.690196 0.090196
0.427451 0.690196 0.090196
0.447059 0.690196 0.090196
0.462745 0.690196 0.090196
0.478431 0.690196 0.090196
0.494118 0.690196 0.090196
0.509804 0.690196 0.090196
0.521569 0.690196 0.090196
0.537255 0.690196 0.090196
0.556863 0.690196 0.090196
0.572549 0.690196 0.090196
0.592157 0.690196 0.090196
0.607843 0.690196 0.090196
0.627451 0.690196 0.090196
0.647059 0.690196 0.090196
0.666667 0.690196 0.090196
0.690196 0.690196 0.090196
0.709804 0.690196 0.090196
0.733333 0.690196 0.090196
0.760784 0.690196 0.090196
0.788235 0.690196 0.090196
0.815686 0.690196 0.090196
0.850980 0.690196 0.090196
0.898039 0.690196 0.090196
1.000000 0.690196 0.090196
0.090196 0.709804 0.090196
0.160784 0.709804 0.090196
0.219608 0.709804 0.090196
0.262745 0.709804 0.090196
0.301961 0.709804 0.090196
0.333333 0.709804 0.090196
0.360784 0.709804 0.090196
0.388235 0.709804 0.090196
0.407843 0.709804 0.090196
0.427451 0.709804 0.090196
0.447059 0.709804 0.090196
0.462745 0.709804 0.090196
0.478431 0.709804 0.090196
0.494118 0.709804 0.090196
0.509804 0.709804 0.090196
0.521569 0.709804 0.090196
0.537255 0.709804 0.090196
0.556863 0.709804 0.090196
0.572549 0.709804 0.090196
0.592157 0.709804 0.090196
0.607843 0.709804 0.090196
0.627451 0.709804 0.090196
0.647059 0.709804 0.090196
0.666667 0.709804 0.090196
0.690196 0.709804 0.090196
0.709804 0.709804 0.090196
0.733333 0.709804 0.090196
0.760784 0.709804 0.090196
0.788235 0.709804 0.090196
0.815686 0.709804 0.090196
0.850980 0.709804 0.090196
0.898039 0.709804 0.090196
1.000000 0.709804 0.090196
0.090196 0.733333 0.090196
0.160784 0.733333 0.090196
0.219608 0.733333 0.090196
0.262745 0.733333 0.090196
0.301961 0.733333 0.090196
0.333333 0.733333 0.090196
0.360784 0.733333 0.090196
0.388235 0.733333 0.090196
0.407843 0.733333 0.090196
0.427451 0.733333 0.090196
0.447059 0.733333 0.090196
0.462745 0.733333 0.090196
0.478431 0.733333 0.090196
0.494118 0.733333 0.090196
0.509804 0.733333 0.090196
0.521569 0.733333 0.090196
0.537255 0.733333 0.090196
0.556863 0.733333 0.090196
0.572549 0.733333 0.090196
0.592157 0.733333 0.090196
0.607843 0.733333 0.090196
0.627451 0.733333 0.090196
0.647059 0.733333 0.090196
0.666667 0.733333 0.090196
0.690196 0.733333 0.090196
0.709804 0.733333 0.090196
0.733333 0.733333 0.090196
0.760784 0.733333 0.090196
0.788235 0.733333 0.090196
