examples/dpx/Video2Log_HR_150.cube
TITLE "Generate by Resolve"
LUT_3D_SIZE 9
0.090196 0.090196 0.090196
0.301961 0.090196 0.090196
0.407843 0.090196 0.090196
0.478431 0.090196 0.090196
0.537255 0.090196 0.090196
0.607843 0.090196 0.090196
0.690196 0.090196 0.090196
0.788235 0.090196 0.090196
1.000000 0.090196 0.090196
0.090196 0.301961 0.090196
0.301961 0.301961 0.090196
0.407843 0.301961 0.090196
0.478431 0.301961 0.090196
0.537255 0.301961 0.090196
0.607843 0.301961 0.090196
0.690196 0.301961 0.090196
0.788235 0.301961 0.090196
1.000000 0.301961 0.090196
0.090196 0.407843 0.090196
0.301961 0.407843 0.090196
0.407843 0.407843 0.090196
0.478431 0.407843 0.090196
0.537255 0.407843 0.090196
0.607843 0.407843 0.090196
0.690196 0.407843 0.090196
0.788235 0.407843 0.090196
1.000000 0.407843 0.090196
0.090196 0.478431 0.090196
0.301961 0.478431 0.090196
0.407843 0.478431 0.090196
0.478431 0.478431 0.090196
0.537255 0.478431 0.090196
0.607843 0.478431 0.090196
0.690196 0.478431 0.090196
0.788235 0.478431 0.090196
1.000000 0.478431 0.090196
0.090196 0.537255 0.090196
0.301961 0.537255 0.090196
0.407843 0.537255 0.090196
0.478431 0.537255 0.090196
0.537255 0.537255 0.090196
0.607843 0.537255 0.090196
0.690196 0.537255 0.090196
0.788235 0.537255 0.090196
1.000000 0.537255 0.090196
0.090196 0.607843 0.090196
0.301961 0.607843 0.090196
0.407843 0.607843 0.090196
0.478431 0.607843 0.090196
0.537255 0.607843 0.090196
0.607843 0.607843 0.090196
0.690196 0.607843 0.090196
0.788235 0.607843 0.090196
1.000000 0.607843 0.090196
0.090196 0.690196 0.090196
0.301961 0.690196 0.090196
0.407843 0.690196 0.090196
0.478431 0.690196 0.090196
0.537255 0.690196 0.090196
0.607843 0.690196 0.090196
0.690196 0.690196 0.090196
0.788235 0.690196 0.090196
1.000000 0.690196 0.090196
0.090196 0.788235 0.090196
0.301961 0.788235 0.090196
0.407843 0.788235 0.090196
0.478431 0.788235 0.090196
0.537255 0.788235 0.090196
0.607843 0.788235 0.090196
0.690196 0.788235 0.090196
0.788235 0.788235 0.090196
1.000000 0.788235 0.090196
0.090196 1.000000 0.090196
0.301961 1.000000 0.090196
0.407843 1.000000 0.090196
0.478431 1.000000 0.090196
0.537255 1.000000 0.090196
0.607843 1.000000 0.090196
0.690196 1.000000 0.090196
0.788235 1.000000 0.090196
1.000000 1.000000 0.090196
0.090196 0.090196 0.301961
0.301961 0.090196 0.301961
0.407843 0.090196 0.301961
0.478431 0.090196 0.301961
0.537255 0.090196 0.301961
0.607843 0.090196 0.301961
0.690196 0.090196 0.301961
0.788235 0.090196 0.301961
1.000000 0.090196 0.301961
0.090196 0.301961 0.301961
0.301961 0.301961 0.301961
0.407843 0.301961 0.301961
0.478431 0.301961 0.301961
0.537255 0.301961 0.301961
0.607843 0.301961 0.301961
0.690196 0.301961 0.301961
0.788235 0.301961 0.301961
1.000000 0.301961 0.301961
0.090196 0.407843 0.301961
0.301961 0.407843 0.301961
0.407843 0.407843 0.301961
0.478431 0.407843 0.301961
0.537255 0.407843 0.301961
0.607843 0.407843 0.301961
0.690196 0.407843 0.301961
0.788235 0.407843 0.301961
1.000000 0.407843 0.301961
0.090196 0.478431 0.301961
0.301961 0.478431 0.301961
0.407843 0.478431 0.301961
0.478431 0.478431 0.301961
0.537255 0.478431 0.301961
0.607843 0.478431 0.301961
0.690196 0.478431 0.301961
0.788235 0.478431 0.301961
1.000000 0.478431 0.301961
0.090196 0.537255 0.301961
0.301961 0.537255 0.301961
0.407843 0.537255 0.301961
0.478431 0.537255 0.301961
0.537255 0.537255 0.301961
0.607843 0.537255 0.301961
0.690196 0.537255 0.301961
0.788235 0.537255 0.301961
1.000000 0.537255 0.301961
0.090196 0.607843 0.301961
0.301961 0.607843 0.301961
0.407843 0.607843 0.301961
0.478431 0.607843 0.301961
0.537255 0.607843 0.301961
0.607843 0.607843 0.301961
0.690196 0.607843 0.301961
0.788235 0.607843 0.301961
1.000000 0.607843 0.301961
0.090196 0.690196 0.301961
0.301961 0.690196 0.301961
0.407843 0.690196 0.301961
0.478431 0.690196 0.301961
0.537255 0.690196 0.301961
0.607843 0.690196 0.301961
0.690196 0.690196 0.301961
0.788235 0.690196 0.301961
1.000000 0.690196 0.301961
0.090196 0.788235 0.301961
0.301961 0.788235 0.301961
0.407843 0.788235 0.301961
0.478431 0.788235 0.301961
0.537255 0.788235 0.301961
0.607843 0.788235 0.301961
0.690196 0.788235 0.301961
0.788235 0.788235 0.301961
1.000000 0.788235 0.301961
0.090196 1.000000 0.301961
0.301961 1.000000 0.301961
0.407843 1.000000 0.301961
0.478431 1.000000 0.301961
0.537255 1.000000 0.301961
0.607843 1.000000 0.301961
0.690196 1.000000 0.301961
0.788235 1.000000 0.301961
1.000000 1.000000 0.301961
0.090196 0.090196 0.407843
0.301961 0.090196 0.407843
0.407843 0.090196 0.407843
0.478431 0.090196 0.407843
0.537255 0.090196 0.407843
0.607843 0.090196 0.407843
0.690196 0.090196 0.407843
0.788235 0.090196 0.407843
1.000000 0.090196 0.407843
0.090196 0.301961 0.407843
0.301961 0.301961 0.407843
0.407843 0.301961 0.407843
0.478431 0.301961 0.407843
0.537255 0.301961 0.407843
0.607843 0.301961 0.407843
0.690196 0.301961 0.407843
0.788235 0.301961 0.407843
1.000000 0.301961 0.407843
0.090196 0.407843 0.407843
0.301961 0.407843 0.407843
0.407843 0.407843 0.407843
0.478431 0.407843 0.407843
0.537255 0.407843 0.407843
0.607843 0.407843 0.407843
0.690196 0.407843 0.407843
0.788235 0.407843 0.407843
1.000000 0.407843 0.407843
0.090196 0.478431 0.407843
0.301961 0.478431 0.407843
0.407843 0.478431 0.407843
0.478431 0.478431 0.407843
0.537255 0.478431 0.407843
0.607843 0.478431 0.407843
0.690196 0.478431 0.407843
0.788235 0.478431 0.407843
1.000000 0.478431 0.407843
0.090196 0.537255 0.407843
0.301961 0.537255 0.407843
0.407843 0.537255 0.407843
0.478431 0.537255 0.407843
0.537255 0.537255 0.407843
0.607843 0.537255 0.407843
0.690196 0.537255 0.407843
0.788235 0.537255 0.407843
1.000000 0.537255 0.407843
0.090196 0.607843 0.407843
0.301961 0.607843 0.407843
0.407843 0.607843 0.407843
0.478431 0.607843 0.407843
0.537255 0.607843 0.407843
0.607843 0.607843 0.407843
0.690196 0.607843 0.407843
0.788235 0.607843 0.407843
1.000000 0.607843 0.407843
0.090196 0.690196 0.407843
0.301961 0.690196 0.407843
0.407843 0.690196 0.407843
0.478431 0.690196 0.407843
0.537255 0.690196 0.407843
0.607843 0.690196 0.407843
0.690196 0.690196 0.407843
0.788235 0.690196 0.407843
1.000000 0.690196 0.407843
0.090196 0.788235 0.407843
0.301961 0.788235 0.407843
0.407843 0.788235 0.407843
0.478431 0.788235 0.407843
0.537255 0.788235 0.407843
0.607843 0.788235 0.407843
0.690196 0.788235 0.407843
0.788235 0.788235 0.407843
1.000000 0.788235 0.407843
0.090196 1.000000 0.407843
0.301961 1.000000 0.407843
0.407843 1.000000 0.407843
0.478431 1.000000 0.407843
0.537255 1.000000 0.407843
0.607843 1.000000 0.407843
0.690196 1.000000 0.407843
0.788235 1.000000 0.407843
1.000000 1.000000 0.407843
0.090196 0.090196 0.478431
0.301961 0.090196 0.478431
0.407843 0.090196 0.478431
0.478431 0.090196 0.478431
0.537255 0.090196 0.478431
0.607843 0.090196 0.478431
0.690196 0.090196 0.478431
0.788235 0.090196 0.478431
1.000000 0.090196 0.478431
0.090196 0.301961 0.478431
0.301961 0.301961 0.478431
0.407843 0.301961 0.478431
0.478431 0.301961 0.478431
0.537255 0.301961 0.478431
0.607843 0.301961 0.478431
0.690196 0.301961 0.478431
0.788235 0.301961 0.478431
1.000000 0.301961 0.478431
0.090196 0.407843 0.478431
0.301961 0.407843 0.478431
0.407843 0.407843 0.478431
0.478431 0.407843 0.478431
0.537255 0.407843 0.478431
0.607843 0.407843 0.478431
0.690196 0.407843 0.478431
0.788235 0.407843 0.478431
1.000000 0.407843 0.478431
0.090196 0.478431 0.478431
0.301961 0.478431 0.478431
0.407843 0.478431 0.478431
0.478431 0.478431 0.478431
0.537255 0.478431 0.478431
0.607843 0.478431 0.478431
0.690196 0.478431 0.478431
0.788235 0.478431 0.478431
1.000000 0.478431 0.478431
0.090196 0.537255 0.478431
0.301961 0.537255 0.478431
0.407843 0.537255 0.478431
0.478431 0.537255 0.478431
0.537255 0.537255 0.478431
0.607843 0.537255 0.478431
0.690196 0.537255 0.478431
0.788235 0.537255 0.478431
1.000000 0.537255 0.478431
0.090196 0.607843 0.478431
0.301961 0.607843 0.478431
0.407843 0.607843 0.478431
0.478431 0.607843 0.478431
0.537255 0.607843 0.478431
0.607843 0.607843 0.478431
0.690196 0.607843 0.478431
0.788235 0.607843 0.478431
1.000000 0.607843 0.478431
0.090196 0.690196 0.478431
0.301961 0.690196 0.478431
0.407843 0.690196 0.478431
0.478431 0.690196 0.478431
0.537255 0.690196 0.478431
0.607843 0.690196 0.478431
0.690196 0.690196 0.478431
0.788235 0.690196 0.478431
1.000000 0.690196 0.478431
0.090196 0.788235 0.478431
0.301961 0.788235 0.478431
0.407843 0.788235 0.478431
0.478431 0.788235 0.478431
0.537255 0.788235 0.478431
0.607843 0.788235 0.478431
0.690196 0.788235 0.478431
0.788235 0.788235 0.478431
1.000000 0.788235 0.478431
0.090196 1.000000 0.478431
0.301961 1.000000 0.478431
0.407843 1.000000 0.478431
0.478431 1.000000 0.478431
0.537255 1.000000 0.478431
0.607843 1.000000 0.478431
0.690196 1.000000 0.478431
0.788235 1.000000 0.478431
1.000000 1.000000 0.478431
0.090196 0.090196 0.537255
0.301961 0.090196 0.537255
0.407843 0.090196 0.537255
0.478431 0.090196 0.537255
0.537255 0.090196 0.537255
0.607843 0.090196 0.537255
0.690196 0.090196 0.537255
0.788235 0.090196 0.537255
1.000000 0.090196 0.537255
0.090196 0.301961 0.537255
0.301961 0.301961 0.537255
0.407843 0.301961 0.537255
0.478431 0.301961 0.537255
0.537255 0.301961 0.537255
0.607843 0.301961 0.537255
0.690196 0.301961 0.537255
0.788235 0.301961 0.537255
1.000000 0.301961 0.537255
0.090196 0.407843 0.537255
0.301961 0.407843 0.537255
0.407843 0.407843 0.537255
0.478431 0.407843 0.537255
0.537255 0.407843 0.537255
0.607843 0.407843 0.537255
0.690196 0.407843 0.537255
0.788235 0.407843 0.537255
1.000000 0.407843 0.537255
0.090196 0.478431 0.537255
0.301961 0.478431 0.537255
0.407843 0.478431 0.537255
0.478431 0.478431 0.537255
0.537255 0.478431 0.537255
0.607843 0.478431 0.537255
0.690196 0.478431 0.537255
0.788235 0.478431 0.537255
1.000000 0.478431 0.537255
0.090196 0.537255 0.537255
0.301961 0.537255 0.537255
0.407843 0.537255 0.537255
0.478431 0.537255 0.537255
0.537255 0.537255 0.537255
0.607843 0.537255 0.537255
0.690196 0.537255 0.537255
0.788235 0.537255 0.537255
1.000000 0.537255 0.537255
0.090196 0.607843 0.537255
0.301961 0.607843 0.537255
0.407843 0.607843 0.537255
0.478431 0.607843 0.537255
0.537255 0.607843 0.537255
0.607843 0.607843 0.537255
0.690196 0.607843 0.537255
0.788235 0.607843 0.537255
1.000000 0.607843 0.537255
0.090196 0.690196 0.537255
0.301961 0.690196 0.537255
0.407843 0.690196 0.537255
0.478431 0.690196 0.537255
0.537255 0.690196 0.537255
0.607843 0.690196 0.537255
0.690196 0.690196 0.537255
0.788235 0.690196 0.537255
1.000000 0.690196 0.537255
0.090196 0.788235 0.537255
0.301961 0.788235 0.537255
0.407843 0.788235 0.537255
0.478431 0.788235 0.537255
0.537255 0.788235 0.537255
0.607843 0.788235 0.537255
0.690196 0.788235 0.537255
0.788235 0.788235 0.537255
1.000000 0.788235 0.537255
0.090196 1.000000 0.537255
0.301961 1.000000 0.537255
0.407843 1.000000 0.537255
0.478431 1.000000 0.537255
0.537255 1.000000 0.537255
0.607843 1.000000 0.537255
0.690196 1.000000 0.537255
0.788235 1.000000 0.537255
1.000000 1.000000 0.537255
0.090196 0.090196 0.607843
0.301961 0.090196 0.607843
0.407843 0.090196 0.607843
0.478431 0.090196 0.607843
0.537255 0.090196 0.607843
0.607843 0.090196 0.607843
0.690196 0.090196 0.607843
0.788235 0.090196 0.607843
1.000000 0.090196 0.607843
0.090196 0.301961 0.607843
0.301961 0.301961 0.607843
0.407843 0.301961 0.607843
0.478431 0.301961 0.607843
0.537255 0.301961 0.607843
0.607843 0.301961 0.607843
0.690196 0.301961 0.607843
0.788235 0.301961 0.607843
1.000000 0.301961 0.607843
0.090196 0.407843 0.607843
0.301961 0.407843 0.607843
0.407843 0.407843 0.607843
0.478431 0.407843 0.607843
0.537255 0.407843 0.607843
0.607843 0.407843 0.607843
0.690196 0.407843 0.607843
0.788235 0.407843 0.607843
1.000000 0.407843 0.607843
0.090196 0.478431 0.607843
0.301961 0.478431 0.607843
0.407843 0.478431 0.607843
0.478431 0.478431 0.607843
0.537255 0.478431 0.607843
0.607843 0.478431 0.607843
0.690196 0.478431 0.607843
0.788235 0.478431 0.607843
1.000000 0.478431 0.607843
0.090196 0.537255 0.607843
0.301961 0.537255 0.607843
0.407843 0.537255 0.607843
0.478431 0.537255 0.607843
0.537255 0.537255 0.607843
0.607843 0.537255 0.607843
0.690196 0.537255 0.607843
0.788235 0.537255 0.607843
1.000000 0.537255 0.607843
0.090196 0.607843 0.607843
0.301961 0.607843 0.607843
0.407843 0.607843 0.607843
0.478431 0.607843 0.607843
0.537255 0.607843 0.607843
0.607843 0.607843 0.607843
0.690196 0.607843 0.607843
0.788235 0.607843 0.607843
1.000000 0.607843 0.607843
0.090196 0.690196 0.607843
0.301961 0.690196 0.607843
0.407843 0.690196 0.607843
0.478431 0.690196 0.607843
0.537255 0.690196 0.607843
0.607843 0.690196 0.607843
0.690196 0.690196 0.607843
0.788235 0.690196 0.607843
1.000000 0.690196 0.607843
0.090196 0.788235 0.607843
0.301961 0.788235 0.607843
0.407843 0.788235 0.607843
0.478431 0.788235 0.607843
0.537255 0.788235 0.607843
0.607843 0.788235 0.607843
0.690196 0.788235 0.607843
0.788235 0.788235 0.607843
1.000000 0.788235 0.607843
0.090196 1.000000 0.607843
0.301961 1.000000 0.607843
0.407843 1.000000 0.607843
0.478431 1.000000 0.607843
0.537255 1.000000 0.607843
0.607843 1.000000 0.607843
0.690196 1.000000 0.607843
0.788235 1.000000 0.607843
1.000000 1.000000 0.607843
0.090196 0.090196 0.690196
0.301961 0.090196 0.690196
0.407843 0.090196 0.690196
0.478431 0.090196 0.690196
0.537255 0.090196 0.690196
0.607843 0.090196 0.690196
0.690196 0.090196 0.690196
0.788235 0.090196 0.690196
1.000000 0.090196 0.690196
0.090196 0.301961 0.690196
0.301961 0.301961 0.690196
0.407843 0.301961 0.690196
0.478431 0.301961 0.690196
0.537255 0.301961 0.690196
0.607843 0.301961 0.690196
0.690196 0.301961 0.690196
0.788235 0.301961 0.690196
1.000000 0.301961 0.690196
0.090196 0.407843 0.690196
0.301961 0.407843 0.690196
0.407843 0.407843 0.690196
0.478431 0.407843 0.690196
0.537255 0.407843 0.690196
0.607843 0.407843 0.690196
0.690196 0.407843 0.690196
0.788235 0.407843 0.690196
1.000000 0.407843 0.690196
0.090196 0.478431 0.690196
0.301961 0.478431 0.690196
0.407843 0.478431 0.690196
0.478431 0.478431 0.690196
0.537255 0.478431 0.690196
0.607843 0.478431 0.690196
0.690196 0.478431 0.690196
0.788235 0.478431 0.690196
1.000000 0.478431 0.690196
0.090196 0.537255 0.690196
0.301961 0.537255 0.690196
0.407843 0.537255 0.690196
0.478431 0.537255 0.690196
0.537255 0.537255 0.690196
0.607843 0.537255 0.690196
0.690196 0.537255 0.690196
0.788235 0.537255 0.690196
1.000000 0.537255 0.690196
0.090196 0.607843 0.690196
0.301961 0.607843 0.690196
0.407843 0.607843 0.690196
0.478431 0.607843 0.690196
0.537255 0.607843 0.690196
0.607843 0.607843 0.690196
0.690196 0.607843 0.690196
0.788235 0.607843 0.690196
1.000000 0.607843 0.690196
0.090196 0.690196 0.690196
0.301961 0.690196 0.690196
0.407843 0.690196 0.690196
0.478431 0.690196 0.690196
0.537255 0.690196 0.690196
0.607843 0.690196 0.690196
0.690196 0.690196 0.690196
0.788235 0.690196 0.690196
1.000000 0.690196 0.690196
0.090196 0.788235 0.690196
0.301961 0.788235 0.690196
0.407843 0.788235 0.690196
0.478431 0.788235 0.690196
0.537255 0.788235 0.690196
0.607843 0.788235 0.690196
0.690196 0.788235 0.690196
0.788235 0.788235 0.690196
1.000000 0.788235 0.690196
0.090196 1.000000 0.690196
0.301961 1.000000 0.690196
0.407843 1.000000 0.690196
0.478431 1.000000 0.690196
0.537255 1.000000 0.690196
0.607843 1.000000 0.690196
0.690196 1.000000 0.690196
0.788235 1.000000 0.690196
1.000000 1.000000 0.690196
0.090196 0.090196 0.788235
0.301961 0.090196 0.788235
0.407843 0.090196 0.788235
0.478431 0.090196 0.788235
0.537255 0.090196 0.788235
0.607843 0.090196 0.788235
0.690196 0.090196 0.788235
0.788235 0.090196 0.788235
1.000000 0.090196 0.788235
0.090196 0.301961 0.788235
0.301961 0.301961 0.788235
0.407843 0.301961 0.788235
0.478431 0.301961 0.788235
0.537255 0.301961 0.788235
0.607843 0.301961 0.788235
0.690196 0.301961 0.788235
0.788235 0.301961 0.788235
1.000000 0.301961 0.788235
0.090196 0.407843 0.788235
0.301961 0.407843 0.788235
0.407843 0.407843 0.788235
0.478431 0.407843 0.788235
0.537255 0.407843 0.788235
0.607843 0.407843 0.788235
0.690196 0.407843 0.788235
0.788235 0.407843 0.788235
1.000000 0.407843 0.788235
0.090196 0.478431 0.788235
0.301961 0.478431 0.788235
0.407843 0.478431 0.788235
0.478431 0.478431 0.788235
0.537255 0.478431 0.788235
0.607843 0.478431 0.788235
0.690196 0.478431 0.788235
0.788235 0.478431 0.788235
1.000000 0.478431 0.788235
0.090196 0.537255 0.788235
0.301961 0.537255 0.788235
0.407843 0.537255 0.788235
0.478431 0.537255 0.788235
0.537255 0.537255 0.788235
0.607843 0.537255 0.788235
0.690196 0.537255 0.788235
0.788235 0.537255 0.788235
1.000000 0.537255 0.788235
0.090196 0.607843 0.788235
0.301961 0.607843 0.788235
0.407843 0.607843 0.788235
0.478431 0.607843 0.788235
0.537255 0.607843 0.788235
0.607843 0.607843 0.788235
0.690196 0.607843 0.788235
0.788235 0.607843 0.788235
1.000000 0.607843 0.788235
0.090196 0.690196 0.788235
0.301961 0.690196 0.788235
0.407843 0.690196 0.788235
0.478431 0.690196 0.788235
0.537255 0.690196 0.788235
0.607843 0.690196 0.788235
0.690196 0.690196 0.788235
0.788235 0.690196 0.788235
1.000000 0.690196 0.788235
0.090196 0.788235 0.788235
0.301961 0.788235 0.788235
0.407843 0.788235 0.788235
0.478431 0.788235 0.788235
0.537255 0.788235 0.788235
0.607843 0.788235 0.788235
0.690196 0.788235 0.788235
0.788235 0.788235 0.788235
1.000000 0.788235 0.788235
0.090196 1.000000 0.788235
0.301961 1.000000 0.788235
0.407843 1.000000 0.788235
0.478431 1.000000 0.788235
0.537255 1.000000 0.788235
0.607843 1.000000 0.788235
0.690196 1.000000 0.788235
0.788235 1.000000 0.788235
1.000000 1.000000 0.788235
0.090196 0.090196 1.000000
0.301961 0.090196 1.000000
0.407843 0.090196 1.000000
0.478431 0.090196 1.000000
0.537255 0.090196 1.000000
0.607843 0.090196 1.000000
0.690196 0.090196 1.000000
0.788235 0.090196 1.000000
1.000000 0.090196 1.000000
0.090196 0.301961 1.000000
0.301961 0.301961 1.000000
0.407843 0.301961 1.000000
0.478431 0.301961 1.000000
0.537255 0.301961 1.000000
0.607843 0.301961 1.000000
0.690196 0.301961 1.000000
0.788235 0.301961 1.000000
1.000000 0.301961 1.000000
0.090196 0.407843 1.000000
0.301961 0.407843 1.000000
0.407843 0.407843 1.000000
0.478431 0.407843 1.000000
0.537255 0.407843 1.000000
0.607843 0.407843 1.000000
0.690196 0.407843 1.000000
0.788235 0.407843 1.000000
1.000000 0.407843 1.000000
0.090196 0.478431 1.000000
0.301961 0.478431 1.000000
0.407843 0.478431 1.000000
0.478431 0.478431 1.000000
0.537255 0.478431 1.000000
0.607843 0.478431 1.000000
0.690196 0.478431 1.000000
0.788235 0.478431 1.000000
1.000000 0.478431 1.000000
0.090196 0.537255 1.000000
0.301961 0.537255 1.000000
0.407843 0.537255 1.000000
0.478431 0.537255 1.000000
0.537255 0.537255 1.000000
0.607843 0.537255 1.000000
0.690196 0.537255 1.000000
0.788235 0.537255 1.000000
1.000000 0.537255 1.000000
0.090196 0.607843 1.000000
0.301961 0.607843 1.000000
0.407843 0.607843 1.000000
0.478431 0.607843 1.000000
0.537255 0.607843 1.000000
0.607843 0.607843 1.000000
0.690196 0.607843 1.000000
0.788235 0.607843 1.000000
1.000000 0.607843 1.000000
0.090196 0.690196 1.000000
0.301961 0.690196 1.000000
0.407843 0.690196 1.000000
0.478431 0.690196 1.000000
0.537255 0.690196 1.000000
0.607843 0.690196 1.000000
0.690196 0.690196 1.000000
0.788235 0.690196 1.000000
1.000000 0.690196 1.000000
0.090196 0.788235 1.000000
0.301961 0.788235 1.000000
0.407843 0.788235 1.000000
0.478431 0.788235 1.000000
0.537255 0.788235 1.000000
0.607843 0.788235 1.000000
0.690196 0.788235 1.000000
0.788235 0.788235 1.000000
1.000000 0.788235 1.000000
0.090196 1.000000 1.000000
0.301961 1.000000 1.000000
0.407843 1.000000 1.000000
0.478431 1.000000 1.000000
0.537255 1.000000 1.000000
0.607843 1.000000 1.000000
0.690196 1.000000 1.000000
0.788235 1.000000 1.000000
1.000000 1.000000 1.000000
