examples/dpx/Video2Log_HR_150.cube
TITLE "Generate by Resolve"
LUT_3D_SIZE 5
0.090196 0.090196 0.090196
0.407843 0.090196 0.090196
0.537255 0.090196 0.090196
0.690196 0.090196 0.090196
1.000000 0.090196 0.090196
0.090196 0.407843 0.090196
0.407843 0.407843 0.090196
0.537255 0.407843 0.090196
0.690196 0.407843 0.090196
1.000000 0.407843 0.090196
0.090196 0.537255 0.090196
0.407843 0.537255 0.090196
0.537255 0.537255 0.090196
0.690196 0.537255 0.090196
1.000000 0.537255 0.090196
0.090196 0.690196 0.090196
0.407843 0.690196 0.090196
0.537255 0.690196 0.090196
0.690196 0.690196 0.090196
1.000000 0.690196 0.090196
0.090196 1.000000 0.090196
0.407843 1.000000 0.090196
0.537255 1.000000 0.090196
0.690196 1.000000 0.090196
1.000000 1.000000 0.090196
0.090196 0.090196 0.407843
0.407843 0.090196 0.407843
0.537255 0.090196 0.407843
0.690196 0.090196 0.407843
1.000000 0.090196 0.407843
0.090196 0.407843 0.407843
0.407843 0.407843 0.407843
0.537255 0.407843 0.407843
0.690196 0.407843 0.407843
1.000000 0.407843 0.407843
0.090196 0.537255 0.407843
0.407843 0.537255 0.407843
0.537255 0.537255 0.407843
0.690196 0.537255 0.407843
1.000000 0.537255 0.407843
0.090196 0.690196 0.407843
0.407843 0.690196 0.407843
0.537255 0.690196 0.407843
0.690196 0.690196 0.407843
1.000000 0.690196 0.407843
0.090196 1.000000 0.407843
0.407843 1.000000 0.407843
0.537255 1.000000 0.407843
0.690196 1.000000 0.407843
1.000000 1.000000 0.407843
0.090196 0.090196 0.537255
0.407843 0.090196 0.537255
0.537255 0.090196 0.537255
0.690196 0.090196 0.537255
1.000000 0.090196 0.537255
0.090196 0.407843 0.537255
0.407843 0.407843 0.537255
0.537255 0.407843 0.537255
0.690196 0.407843 0.537255
1.000000 0.407843 0.537255
0.090196 0.537255 0.537255
0.407843 0.537255 0.537255
0.537255 0.537255 0.537255
0.690196 0.537255 0.537255
1.000000 0.537255 0.537255
0.090196 0.690196 0.537255
0.407843 0.690196 0.537255
0.537255 0.690196 0.537255
0.690196 0.690196 0.537255
1.000000 0.690196 0.537255
0.090196 1.000000 0.537255
0.407843 1.000000 0.537255
0.537255 1.000000 0.537255
0.690196 1.000000 0.537255
1.000000 1.000000 0.537255
0.090196 0.090196 0.690196
0.407843 0.090196 0.690196
0.537255 0.090196 0.690196
0.690196 0.090196 0.690196
1.000000 0.090196 0.690196
0.090196 0.407843 0.690196
0.407843 0.407843 0.690196
0.537255 0.407843 0.690196
0.690196 0.407843 0.690196
1.000000 0.407843 0.690196
0.090196 0.537255 0.690196
0.407843 0.537255 0.690196
0.537255 0.537255 0.690196
0.690196 0.537255 0.690196
1.000000 0.537255 0.690196
0.090196 0.690196 0.690196
0.407843 0.690196 0.690196
0.537255 0.690196 0.690196
0.690196 0.690196 0.690196
1.000000 0.690196 0.690196
0.090196 1.000000 0.690196
0.407843 1.000000 0.690196
0.537255 1.000000 0.690196
0.690196 1.000000 0.690196
1.000000 1.000000 0.690196
0.090196 0.090196 1.000000
0.407843 0.090196 1.000000
0.537255 0.090196 1.000000
0.690196 0.090196 1.000000
1.000000 0.090196 1.000000
0.090196 0.407843 1.000000
0.407843 0.407843 1.000000
0.537255 0.407843 1.000000
0.690196 0.407843 1.000000
1.000000 0.407843 1.000000
0.090196 0.537255 1.000000
0.407843 0.537255 1.000000
0.537255 0.537255 1.000000
0.690196 0.537255 1.000000
1.000000 0.537255 1.000000
0.090196 0.690196 1.000000
0.407843 0.690196 1.000000
0.537255 0.690196 1.000000
0.690196 0.690196 1.000000
1.000000 0.690196 1.000000
0.090196 1.000000 1.000000
0.407843 1.000000 1.000000
0.537255 1.000000 1.000000
0.690196 1.000000 1.000000
1.000000 1.000000 1.000000
